static/assets/images/protocols/spark-mono.svg

<svg width="333" height="413" viewBox="0 0 333 413" fill="none" xmlns="http://www.w3.org/2000/svg">
<path d="M142.003 411.717L0.914063 247.859C-1.73107 244.792 1.85667 240.36 5.41464 242.303L100.284 293.695C104.753 296.124 108.22 300.1 109.984 304.865L148.175 408.074C149.574 411.869 144.647 414.783 142.003 411.717Z" fill="black"/>
<path d="M162.376 374.045L123.455 181.956C122.877 179.102 123.455 176.096 125.007 173.638L192.936 67.5163C194.303 65.3901 197.618 66.5135 197.374 69.0643L167.15 373.802C166.877 376.564 162.923 376.746 162.376 374.045Z" fill="black"/>
<path d="M196.065 317.462L270.745 209.002C273.3 205.298 277.74 203.387 282.209 204.054L329.977 211.279C333.049 211.735 334.083 215.65 331.65 217.563L199.805 320.984C197.465 322.804 194.394 319.922 196.065 317.493V317.462Z" fill="black"/>
<path d="M207.226 243.091L245.417 2.03846C245.812 -0.449546 249.278 -0.75355 250.098 1.64524L283.972 100.118C284.976 103.062 284.733 106.28 283.273 109.043L211.757 244.609C210.479 247.008 206.8 245.794 207.226 243.122V243.091Z" fill="black"/>
<path d="M43.5146 195.526L52.0592 134.967C52.4238 132.477 55.8298 132.023 56.8332 134.329L109.529 256.935C110.593 259.423 107.49 261.579 105.514 259.727L46.7074 204.632C44.2141 202.295 42.9981 198.865 43.4843 195.495L43.5146 195.526Z" fill="black"/>
</svg>

<svg xmlns="http://www.w3.org/2000/svg" fill="none" viewBox="0 0 333 413"><path fill="#000" d="M142.003 411.717.914 247.859c-2.645-3.067.943-7.499 4.5-5.556l94.87 51.392c4.469 2.429 7.936 6.405 9.7 11.17l38.191 103.209c1.399 3.795-3.528 6.709-6.172 3.643M162.376 374.045l-38.921-192.089c-.578-2.854 0-5.86 1.552-8.318l67.929-106.122c1.367-2.126 4.682-1.003 4.438 1.548L167.15 373.802c-.273 2.762-4.227 2.944-4.774.243M196.065 317.462l74.68-108.46c2.555-3.704 6.995-5.615 11.464-4.948l47.768 7.225c3.072.456 4.106 4.371 1.673 6.284L199.805 320.984c-2.34 1.82-5.411-1.062-3.74-3.491zM207.226 243.091 245.417 2.038c.395-2.488 3.861-2.792 4.681-.393l33.874 98.473a11.28 11.28 0 0 1-.699 8.925l-71.516 135.566c-1.278 2.399-4.957 1.185-4.531-1.487zM43.515 195.526l8.544-60.559c.365-2.49 3.77-2.944 4.774-.638l52.696 122.606c1.064 2.488-2.039 4.644-4.015 2.792l-58.807-55.095c-2.493-2.337-3.709-5.767-3.223-9.137z"/></svg>
